packages/bpk-svgs/src/icons/sm/face-id.svg

<svg viewBox="0 0 24 24" fill="none" xmlns="http://www.w3.org/2000/svg">
<path d="M6.30002 15.599C6.79764 14.9367 7.73795 14.8031 8.40028 15.3008C9.40303 16.0541 10.6473 16.5 12 16.5C13.3527 16.5 14.597 16.0541 15.5997 15.3008C16.262 14.8031 17.2023 14.9367 17.7 15.599C18.1976 16.2613 18.0641 17.2016 17.4017 17.6992C15.8973 18.8296 14.0248 19.5 12 19.5C9.97523 19.5 8.10273 18.8296 6.59825 17.6992C5.93593 17.2016 5.80241 16.2613 6.30002 15.599Z" fill="#111236"/>
<path d="M12 8.25C12.8284 8.25 13.5 8.92157 13.5 9.75V12.75C13.5 13.5784 12.8284 14.25 12 14.25C11.1716 14.25 10.5 13.5784 10.5 12.75V9.75C10.5 8.92157 11.1716 8.25 12 8.25Z" fill="#111236"/>
<path d="M16.5 6C17.3284 6 18 6.67157 18 7.5V9C18 9.82843 17.3284 10.5 16.5 10.5C15.6716 10.5 15 9.82843 15 9V7.5C15 6.67157 15.6716 6 16.5 6Z" fill="#111236"/>
<path d="M7.5 6C8.32843 6 9 6.67157 9 7.5V9C9 9.82843 8.32843 10.5 7.5 10.5C6.67157 10.5 6 9.82843 6 9V7.5C6 6.67157 6.67157 6 7.5 6Z" fill="#111236"/>
<path d="M4.5 3C3.67157 3 3 3.67157 3 4.5V7.5C3 8.32843 2.32843 9 1.5 9C0.671573 9 0 8.32843 0 7.5V4.5C0 2.01472 2.01472 0 4.5 0H7.5C8.32843 0 9 0.671573 9 1.5C9 2.32843 8.32843 3 7.5 3H4.5ZM15 1.5C15 0.671573 15.6716 0 16.5 0H19.5C21.9853 0 24 2.01472 24 4.5V7.5C24 8.32843 23.3284 9 22.5 9C21.6716 9 21 8.32843 21 7.5V4.5C21 3.67157 20.3284 3 19.5 3H16.5C15.6716 3 15 2.32843 15 1.5ZM1.5 15C2.32843 15 3 15.6716 3 16.5V19.5C3 20.3284 3.67157 21 4.5 21H7.5C8.32843 21 9 21.6716 9 22.5C9 23.3284 8.32843 24 7.5 24H4.5C2.01472 24 0 21.9853 0 19.5V16.5C0 15.6716 0.671573 15 1.5 15ZM22.5 15C23.3284 15 24 15.6716 24 16.5V19.5C24 21.9853 21.9853 24 19.5 24H16.5C15.6716 24 15 23.3284 15 22.5C15 21.6716 15.6716 21 16.5 21H19.5C20.3284 21 21 20.3284 21 19.5V16.5C21 15.6716 21.6716 15 22.5 15Z" fill="#111236"/>
</svg>

<svg xmlns="http://www.w3.org/2000/svg" viewBox="0 0 24 24"><path d="M6.3 15.599a1.5 1.5 0 0 1 2.1-.298A5.967 5.967 0 0 0 12 16.5a5.967 5.967 0 0 0 3.6-1.2 1.5 1.5 0 1 1 1.802 2.4A8.966 8.966 0 0 1 12 19.5a8.966 8.966 0 0 1-5.402-1.8 1.5 1.5 0 0 1-.298-2.101zM12 8.25a1.5 1.5 0 0 1 1.5 1.5v3a1.5 1.5 0 0 1-3 0v-3a1.5 1.5 0 0 1 1.5-1.5zM16.5 6A1.5 1.5 0 0 1 18 7.5V9a1.5 1.5 0 0 1-3 0V7.5A1.5 1.5 0 0 1 16.5 6zM7.5 6A1.5 1.5 0 0 1 9 7.5V9a1.5 1.5 0 1 1-3 0V7.5A1.5 1.5 0 0 1 7.5 6zM4.5 3A1.5 1.5 0 0 0 3 4.5v3a1.5 1.5 0 1 1-3 0v-3A4.5 4.5 0 0 1 4.5 0h3a1.5 1.5 0 1 1 0 3h-3zM15 1.5A1.5 1.5 0 0 1 16.5 0h3A4.5 4.5 0 0 1 24 4.5v3a1.5 1.5 0 0 1-3 0v-3A1.5 1.5 0 0 0 19.5 3h-3A1.5 1.5 0 0 1 15 1.5zM1.5 15A1.5 1.5 0 0 1 3 16.5v3A1.5 1.5 0 0 0 4.5 21h3a1.5 1.5 0 0 1 0 3h-3A4.5 4.5 0 0 1 0 19.5v-3A1.5 1.5 0 0 1 1.5 15zm21 0a1.5 1.5 0 0 1 1.5 1.5v3a4.5 4.5 0 0 1-4.5 4.5h-3a1.5 1.5 0 0 1 0-3h3a1.5 1.5 0 0 0 1.5-1.5v-3a1.5 1.5 0 0 1 1.5-1.5z"/></svg>
